Newaita/actions/symbolic/selection-end-symbolic.svg

<svg height="16" viewBox="0 0 16 16" width="16" xmlns="http://www.w3.org/2000/svg"><path d="m5.28125 2.113281c-.359375.003907-.648438.296875-.648438.65625v10.585938c0 .363281.296876.660156.660157.660156h5.292969c.363281 0 .65625-.296875.65625-.660156v-5.292969c0-.175781-.070313-.339844-.191407-.464844l-5.292969-5.292968c-.125-.125-.296874-.195313-.476562-.191407zm0 0" fill="#424242"/></svg>

<?xml version="1.0" encoding="UTF-8"?>
<svg xmlns="http://www.w3.org/2000/svg" xmlns:xlink="http://www.w3.org/1999/xlink" width="16px" height="16px" viewBox="0 0 16 16" version="1.1">
<g id="surface1">
<path style=" stroke:none;fill-rule:nonzero;fill:rgb(25.882354%,25.882354%,25.882354%);fill-opacity:1;" d="M 5.28125 2.113281 C 4.921875 2.117188 4.632812 2.410156 4.632812 2.769531 L 4.632812 13.355469 C 4.632812 13.71875 4.929688 14.015625 5.292969 14.015625 L 10.585938 14.015625 C 10.949219 14.015625 11.242188 13.71875 11.242188 13.355469 L 11.242188 8.0625 C 11.242188 7.886719 11.171875 7.722656 11.050781 7.597656 L 5.757812 2.304688 C 5.632812 2.179688 5.460938 2.109375 5.28125 2.113281 Z M 5.28125 2.113281 "/>
</g>
</svg>
